X: 41
T:Twll yn ei Boch
T:The Dimpled Cheek
M:3/4
L:1/8
Q:200
C:Trad
S:51 Welsh Airs
R:Waltz
A:Wales
H:From a facsimile c.1840: A Choice Collection of Fifty-One Welsh Airs
H:adapted for The Harp, Piano-Forte, Harpsichord,
H:Violin, or Flute by Edward Jones
H:"Harper to His Late Majesty King George IV, when
H:Prince of Wales".
Z:brian_martin12345@yahoo.com
K:C
"Cantabile"
c2G2A2|G2F2E2|D2E2F2|E3DC2|G2c2B2|c2d2e2|d2e2c2|({cA}B3A)G2:||!
(c3d)cB|A2c2c2|(d3e)dc|B2G2G2|A2A_BAG|FGAGFE|D2c2B2|c6:||

